images/svg/teeth-top.svg

<svg width="48" height="52" viewBox="0 0 48 52" fill="none" xmlns="http://www.w3.org/2000/svg">
<path d="M12.3125 51C15.3791 51 17.0362 50.2215 18.5825 49.4929L18.5905 49.4891C20.0372 48.8074 21.3762 48.1765 24 48.1765C26.6244 48.1765 27.963 48.8074 29.4094 49.4891L29.4174 49.4928C30.9636 50.2215 32.6204 51 35.6875 51C41.9603 51 47 45.7875 47 39.4117C47 32.9232 45.854 23.4918 43.9819 15.6726C43.0467 11.7668 41.9175 8.20756 40.6319 5.60284C39.9906 4.30352 39.2853 3.18941 38.5066 2.38637C37.7317 1.58716 36.7867 1 35.6875 1C33.6065 1 32.3462 2.67638 31.5078 4.43793C30.7301 6.07205 30.126 8.17872 29.5391 10.2259C29.4744 10.4513 29.41 10.676 29.3456 10.8993C28.678 13.2127 28.0059 15.3917 27.1002 16.9931C26.197 18.5902 25.2163 19.3531 24 19.3531C22.7837 19.3531 21.8031 18.5902 20.8999 16.9932C19.9944 15.3918 19.3224 13.2128 18.6549 10.8993C18.5905 10.6762 18.5261 10.4518 18.4616 10.2266C17.8746 8.17915 17.2705 6.07222 16.4927 4.43791C15.6542 2.67626 14.3938 1 12.3125 1C11.2133 1 10.2683 1.58712 9.49328 2.38635C8.71458 3.18939 8.00923 4.3035 7.36791 5.60283C6.08228 8.20756 4.95305 11.7668 4.01792 15.6726C2.14585 23.4918 1.00001 32.9232 1.00001 39.4117C1.00001 45.7876 6.04032 51 12.3125 51Z" fill="white" stroke="white" stroke-width="2"/>
<path d="M16.834 45.7971L16.834 45.7972L16.8166 45.8054L16.8166 45.8054L16.8059 45.8104C15.4717 46.4391 14.4659 46.913 12.3125 46.913C8.4086 46.913 5.09525 43.6382 5.09525 39.4117C5.09525 33.2822 6.19378 24.1709 8.00104 16.6224C8.90746 12.8365 9.95242 9.61556 11.0416 7.40878C11.5363 6.40662 11.9773 5.74413 12.3244 5.3497C12.4474 5.52892 12.6057 5.7968 12.7935 6.19142C13.4112 7.48914 13.9193 9.24644 14.5364 11.3937C14.5965 11.6029 14.6575 11.8153 14.7195 12.0302C15.3645 14.2656 16.1527 16.9139 17.3335 19.0018C18.5178 21.0963 20.5817 23.44 24 23.44C27.4182 23.44 29.4822 21.0963 30.6667 19.0019C31.8475 16.914 32.6358 14.2657 33.2809 12.0303C33.3428 11.8159 33.4036 11.604 33.4636 11.3953L33.4643 11.393C34.0813 9.24605 34.5894 7.48897 35.207 6.19135C35.3946 5.79707 35.5528 5.52929 35.6758 5.35007C36.0228 5.74456 36.4637 6.40694 36.9581 7.40876C38.0473 9.61557 39.0923 12.8365 39.9988 16.6224C41.8061 24.1709 42.9048 33.2822 42.9048 39.4117C42.9048 43.6383 39.5919 46.913 35.6875 46.913C33.5337 46.913 32.5281 46.4391 31.1945 45.8106L31.1837 45.8055L31.1837 45.8055L31.1662 45.7972C29.5186 45.0208 27.5275 44.0896 24 44.0896C20.473 44.0896 18.4817 45.0208 16.834 45.7971ZM12.2201 5.08036C12.1703 5.07325 12.1242 5.06068 12.0854 5.04406C12.0622 5.03408 12.0503 5.02631 12.0492 5.02561C12.0481 5.02483 12.0604 5.03286 12.0857 5.05644C12.0857 5.05649 12.0858 5.05654 12.0858 5.05659C12.0403 5.04543 11.9159 5.01173 11.7814 4.92412C11.7261 4.88812 11.6364 4.8185 11.5512 4.71488C11.6078 4.64956 11.6636 4.58873 11.7182 4.53234C12.0105 4.2309 12.1962 4.132 12.2781 4.10039L12.3145 4.3787L12.2989 5.08568C12.2955 5.08559 12.292 5.08548 12.2885 5.08534C12.2862 5.08525 12.2838 5.08515 12.2814 5.08504L12.2801 5.08498C12.2717 5.0846 12.2502 5.08364 12.2201 5.08036ZM35.7804 5.0803C35.7519 5.08343 35.7314 5.08442 35.7228 5.08484L35.7219 5.08488C35.7183 5.08506 35.7147 5.08521 35.7112 5.08535C35.7078 5.08548 35.7045 5.08558 35.7012 5.08567L35.6854 4.37347L35.7213 4.10019C35.803 4.13159 35.9887 4.23028 36.2816 4.53231C36.3365 4.58894 36.3924 4.65003 36.4493 4.71566C36.3578 4.82693 36.2608 4.89769 36.206 4.93222C36.076 5.01408 35.958 5.04571 35.9147 5.05643C35.9147 5.0564 35.9148 5.05637 35.9148 5.05634C35.9375 5.03514 35.9498 5.0265 35.9512 5.02553C35.9498 5.02643 35.9379 5.03412 35.915 5.04396C35.8763 5.06057 35.8302 5.07316 35.7804 5.0803ZM12.3125 51C15.3791 51 17.0362 50.2215 18.5825 49.4929L18.5905 49.4891C20.0372 48.8074 21.3762 48.1765 24 48.1765C26.6244 48.1765 27.963 48.8074 29.4094 49.4891L29.4174 49.4928C30.9636 50.2215 32.6204 51 35.6875 51C41.9603 51 47 45.7875 47 39.4117C47 32.9232 45.854 23.4918 43.9819 15.6726C43.0467 11.7668 41.9175 8.20756 40.6319 5.60284C39.9906 4.30352 39.2853 3.18941 38.5066 2.38637C37.7317 1.58716 36.7867 1 35.6875 1C33.7057 1 32.4683 2.52413 31.6379 4.17212C30.7977 5.83969 30.1661 8.04088 29.5559 10.1675L29.5364 10.2355C28.8389 12.6662 28.1607 15.0131 27.2278 16.7609C26.2924 18.5135 25.2732 19.3531 24 19.3531C22.7269 19.3531 21.7078 18.5136 20.7725 16.7612C19.8398 15.0135 19.1616 12.6668 18.4642 10.2361L18.4447 10.1681C17.8346 8.04143 17.203 5.84007 16.3627 4.17235C15.5322 2.52416 14.2946 1 12.3125 1C11.2133 1 10.2683 1.58712 9.49328 2.38635C8.71458 3.18939 8.00923 4.3035 7.36791 5.60283C6.08228 8.20756 4.95306 11.7668 4.01792 15.6726C2.14585 23.4918 1.00001 32.9232 1.00001 39.4117C1.00001 45.7876 6.04032 51 12.3125 51Z" fill="#2CA5F5" stroke="white" stroke-width="2"/>
</svg>

<svg width="48" height="52" fill="none" xmlns="http://www.w3.org/2000/svg"><path d="M12.313 51c3.066 0 4.723-.779 6.27-1.507l.008-.004c1.446-.682 2.785-1.313 5.409-1.313 2.624 0 3.963.631 5.41 1.313l.007.004C30.964 50.22 32.62 51 35.687 51 41.96 51 47 45.788 47 39.412c0-6.489-1.146-15.92-3.018-23.74-.935-3.905-2.065-7.464-3.35-10.07-.641-1.298-1.347-2.413-2.125-3.216C37.732 1.587 36.787 1 35.687 1c-2.08 0-3.34 1.676-4.18 3.438-.777 1.634-1.381 3.74-1.968 5.788l-.193.673c-.668 2.314-1.34 4.493-2.246 6.094-.903 1.597-1.884 2.36-3.1 2.36-1.216 0-2.197-.763-3.1-2.36-.906-1.601-1.578-3.78-2.245-6.094a337.49 337.49 0 01-.193-.672c-.587-2.048-1.192-4.155-1.97-5.79C15.655 2.678 14.395 1 12.313 1c-1.099 0-2.044.587-2.819 1.386-.778.803-1.484 1.917-2.125 3.217-1.286 2.605-2.415 6.164-3.35 10.07C2.146 23.492 1 32.923 1 39.412 1 45.788 6.04 51 12.313 51z" fill="#fff" stroke="#fff" stroke-width="2"/><path d="M16.834 45.797h0l-.017.008h0l-.011.005c-1.334.63-2.34 1.103-4.494 1.103-3.903 0-7.217-3.275-7.217-7.501 0-6.13 1.099-15.241 2.906-22.79.906-3.786 1.951-7.006 3.04-9.213.495-1.002.936-1.665 1.283-2.06.123.18.282.448.47.842.617 1.298 1.125 3.055 1.742 5.203l.184.636c.644 2.236 1.433 4.884 2.614 6.972 1.184 2.094 3.248 4.438 6.666 4.438s5.482-2.344 6.667-4.438c1.18-2.088 1.969-4.736 2.614-6.972l.183-.635v-.002c.617-2.147 1.125-3.904 1.743-5.202a6.23 6.23 0 01.469-.84c.347.394.788 1.056 1.282 2.058 1.09 2.207 2.134 5.427 3.04 9.213 1.808 7.549 2.907 16.66 2.907 22.79 0 4.226-3.313 7.501-7.218 7.501-2.153 0-3.159-.474-4.492-1.102l-.011-.005h0l-.018-.009C29.52 45.021 27.527 44.09 24 44.09c-3.527 0-5.518.93-7.166 1.707zM12.22 5.08a.54.54 0 01-.135-.036c-.023-.01-.035-.018-.036-.018 0-.001.011.007.037.03 0 0 0 0 0 0a1.001 1.001 0 01-.535-.341 4.48 4.48 0 01.167-.183c.293-.301.478-.4.56-.432l.037.279-.016.707a.773.773 0 01-.018-.001h0a.487.487 0 01-.06-.005zm23.56 0l-.057.005h-.001a1.075 1.075 0 01-.02 0l-.017-.712.036-.273c.082.032.268.13.56.432.056.057.111.118.168.184a1.001 1.001 0 01-.535.34s0 0 0 0a.356.356 0 01.037-.03c-.001 0-.013.008-.036.018a.54.54 0 01-.135.036zM12.312 51c3.067 0 4.724-.779 6.27-1.507l.008-.004c1.447-.682 2.786-1.313 5.41-1.313s3.963.631 5.41 1.313l.007.004C30.964 50.22 32.62 51 35.687 51 41.96 51 47 45.788 47 39.412c0-6.489-1.146-15.92-3.018-23.74-.935-3.905-2.065-7.464-3.35-10.07-.641-1.298-1.347-2.413-2.125-3.216C37.732 1.587 36.787 1 35.687 1c-1.981 0-3.219 1.524-4.05 3.172-.84 1.668-1.47 3.869-2.081 5.996l-.02.068c-.697 2.43-1.375 4.777-2.308 6.525-.936 1.753-1.955 2.592-3.228 2.592-1.273 0-2.292-.84-3.227-2.592-.933-1.747-1.611-4.094-2.309-6.525l-.02-.068c-.61-2.127-1.241-4.328-2.081-5.996C15.533 2.524 14.295 1 12.313 1c-1.1 0-2.045.587-2.82 1.386-.778.803-1.484 1.917-2.125 3.217-1.286 2.605-2.415 6.164-3.35 10.07C2.146 23.492 1 32.923 1 39.412 1 45.788 6.04 51 12.313 51z" fill="#2CA5F5" stroke="#fff" stroke-width="2"/></svg>
